X: 1368
T: Mey-i Lâ`linle Dîl...
C: Tatyos Efendi
O: Turkey
F: http://compmusic.upf.edu/node/140
N: rast--sarki--curcuna--mey-i_lalinle--tatyos_efendi
N: makam= rast
N: form= sarki
N: usul= curcuna = 10/8
M: 10/8
L: 1/16
K: C _1/4B ^f  
Q: 1/4=210
%%MIDI tuningsystem comma53
d2c2 d2e4c2 e2d4z2  | B2A2 B2c4A2 c2B4A2  | \
w:  ARANAĞME  |   | 
G4 A2B2 c2d2 e2=f2 e2d2  | 
w:   | 
a2g2 =f2e2 d2e2 c2d4z2  | d2c2 d2e4c2 e2d4z2  | \
w:   |   | 
B2A2 B2c4A2 c2B4A2  | 
w:   | 
G4 g2=f2 e2d2 c2B2 A2G2  | A2B2 c2B2 A2G2 F2G4z2  | \
w:   |   | 
d2c2 d2e4c2 e2d4z2  | 
w:  ARANAĞME  | 
B2A2 B2c4A2 c2B4A2  | G4 A2B2 c2d2 e2=f2 e2d2  | \
w:   |   | 
a2g2 =f2e2 d2e2 c2d4z2  | 
w:   | 
d2c2 d2e4c2 e2d4z2  | B2A2 B2c4A2 c2B4A2  | \
w:   |   | 
G4 g2=f2 e2d2 c2B2 A2G2  | 
w:   | 
A2B2 c2B2 A2G2 F2G4z2  | z4 G2G4G4A6  | \
w:   |  Mey_ i  lâ lin  | 
G4 A2B4c4d4z2  | d4 c2c2 B2B2 A2A4G2  | 
w:  le  *  *  dîl   |  mes *  tâ *  ne  *  ol  | 
A4 c2B2 A2A2 G2F2 E2D2  | D4 G2G4G4A6  | \
w:  sun    |  *  Mey_ i  lâ lin  | 
G4 A2B4c4d4z2  | d4 c2c2 B2B2 A2e4d2  | 
w:  le  *  *  dîl   |  mes *  tâ *  ne  *  ol  | 
d4 =f2e2 d2e2 c2d4z2  | z4 e2d2 c2c2 B2B4z2  | \
w:  sun   SAZ  |  A man  *  sâ *  kî   | 
z4 d2c2 B2B2 A2A4z2  | 
w:  a man  *  sâ *  kî   | 
z4 G2G4G4e4d2  | d2c2 c4 B2d4c4B2  | \
w:  ge tir  bir  ta  |  ne  *  ol *  sun    | 
z4 c2c2 B2B2 A2A4z2  | 
w:  A man  *  sâ *  kî   | 
z4 G2G4G4e4d2  | d4 c2c2 B2B2 A2A4G2  | \
w:  a man  ge tir   |  bir  *  ta *  ne  *  ol  | 
G4 e2d2 c2B2 c2d4z2  | 
w:  sun   SAZ  | 
z4 c2d4d4_7/8e3dc2  | d2_7/8e2 f2g2 a2f2 e2d6  | \
w:  Gö nül  kâ şâ  |  ne *  si  *  *  mey  | 
d2c2 e4 c2c2 B2d2 B2A2  | 
w:  ha  | 
A2G2 e4 d2d4_7/8e6  | z4 d2_7/8e4e4e3dc2  | \
w:  ne  *  ol *  sun    |  Gö nül  kâ şâ  | 
d2_7/8e2 f2g2 a2f2 e2d6  | 
w:  ne *  si  *  *  mey  | 
d2c2 e4 c2c2 B2d2 B2A2  | A2G2 e4 d2d8-d2  | \
w:  ha  |  ne  *  ol *  sun    | 
d4 =f2e2 d2e2 c2d4z2  | 
w:  SAZ  | 
z4 e2d2 c2c2 B2B4z2  | z4 d2c2 B2B2 A2A4z2  | \
w:  A man  *  sâ *  kî   |  a man  *  sâ *  kî   | 
z4 G2G4G4e4d2  | 
w:  ge tir  bir  ta  | 
d2c2 c4 B2d4c4B2  | z4 c2c2 B2B2 A2A4z2  | \
w:  ne  *  ol *  sun    |  A man  *  sâ *  kî   | 
z4 =f2f4f2 e2e4d2  | 
w:  a man  ge *  tir   | 
d4 c2c2 B2B2 A2A4G2  | G4 e2d2 c2B2 A2G4z2  | |


